icons/square-divide.svg

<svg xmlns="http://www.w3.org/2000/svg" width="24" height="24" viewBox="0 0 24 24">
  <path d="M20,2 C21.1045695,2 22,2.8954305 22,4 L22,20 C22,21.1045695 21.1045695,22 20,22 L4,22 C2.8954305,22 2,21.1045695 2,20 L2,4 C2,2.8954305 2.8954305,2 4,2 L20,2 Z M12,15 C11.1715729,15 10.5,15.6715729 10.5,16.5 C10.5,17.3284271 11.1715729,18 12,18 C12.8284271,18 13.5,17.3284271 13.5,16.5 C13.5,15.6715729 12.8284271,15 12,15 Z M17,11 L7,11 L6.88337887,11.0067277 C6.38604019,11.0644928 6,11.4871642 6,12 C6,12.5522847 6.44771525,13 7,13 L7,13 L17,13 L17.1166211,12.9932723 C17.6139598,12.9355072 18,12.5128358 18,12 C18,11.4477153 17.5522847,11 17,11 L17,11 Z M12,6 C11.1715729,6 10.5,6.67157288 10.5,7.5 C10.5,8.32842712 11.1715729,9 12,9 C12.8284271,9 13.5,8.32842712 13.5,7.5 C13.5,6.67157288 12.8284271,6 12,6 Z"/>
</svg>

<svg xmlns="http://www.w3.org/2000/svg" viewBox="0 0 24 24">
  <path d="M20 2a2 2 0 0 1 2 2v16a2 2 0 0 1-2 2H4a2 2 0 0 1-2-2V4c0-1.1.9-2 2-2h16zm-8 13a1.5 1.5 0 1 0 0 3 1.5 1.5 0 0 0 0-3zm5-4H6.88A1 1 0 0 0 7 13h10.12a1 1 0 0 0-.12-2zm-5-5a1.5 1.5 0 1 0 0 3 1.5 1.5 0 0 0 0-3z"/>
</svg>
